X: 260
T: A Memory Of Angus
R: jig
M: 6/8
K: Dmajor
B,|A,DF Adf|a^gb a3|A,DF Adf|g3 g2F|
GBd gfg|bed c2B|Aba gag|f3a3|
A,DF Adf|a^gb a3|A,DF Adf|g3 g2F|
GBd gfg|DFA dfa|gfg B2c|d3 ded|
cBA cde|fde f2a|gfg ecA|ecA G2d|
cBA cde|fde f2a|gfg B2c|d3 ded|
cBA cde|fde f2a|gfg ecA|ecA G2A|
GBd gfg|bed c2B|Aba gfe|d3 d2|

